TuxGuitar/src-skins/Symbolic/TuxGuitar/media-playlist-repeat-song-symbolic_start.svg

<?xml version="1.0" encoding="UTF-8"?>
<svg id="svg4" width="16px" height="16px" version="1.1" viewBox="0 0 16 16" xmlns="http://www.w3.org/2000/svg">
 <path id="path2" d="m7 1v2h-3c-2.1992 0-4 1.8008-4 4v2c0 1.0195 0.38672 1.9648 1.0195 2.6719 0.36719 0.41016 1 0.44531 1.4102 0.07813 0.41406-0.36719 0.44922-1 0.078124-1.4141-0.31641-0.35157-0.50781-0.8125-0.50781-1.3359v-2c0-1.125 0.875-2 2-2h3v2h1v-0.007812c0.26562 0.003906 0.51953-0.10156 0.70703-0.28516l2-2c0.20703-0.20703 0.3125-0.49609 0.28906-0.78906 0-0.015625-0.0039-0.03125-0.0078-0.046875-0.0078-0.070313-0.02344-0.13672-0.04687-0.20312-0.01172-0.035157-0.02344-0.070313-0.04297-0.10156 0-0.00781-0.0039-0.011718-0.0078-0.019531-0.011748-0.023437-0.027373-0.046875-0.039092-0.070313-0.007812-0.011718-0.019531-0.027343-0.027343-0.039062-0.015625-0.019531-0.027344-0.042969-0.042969-0.0625l-0.023438-0.023438c-0.015624-0.019531-0.03125-0.039062-0.050781-0.058593l-2-2c-0.1875-0.18359-0.44141-0.28906-0.70703-0.28516v-0.007812z" fill="#2e3436"/>
</svg>

<?xml version="1.0" encoding="UTF-8" standalone="no"?>
<svg
   height="16px"
   viewBox="0 0 16 16"
   width="16px"
   version="1.1"
   id="svg4"
   sodipodi:docname="media-playlist-repeat-song-symbolic_start.svg"
   inkscape:version="1.2.2 (b0a8486541, 2022-12-01)"
   xmlns:inkscape="http://www.inkscape.org/namespaces/inkscape"
   xmlns:sodipodi="http://sodipodi.sourceforge.net/DTD/sodipodi-0.dtd"
   xmlns="http://www.w3.org/2000/svg"
   xmlns:svg="http://www.w3.org/2000/svg">
  <defs
     id="defs8" />
  <sodipodi:namedview
     id="namedview6"
     pagecolor="#ffffff"
     bordercolor="#666666"
     borderopacity="1.0"
     inkscape:showpageshadow="2"
     inkscape:pageopacity="0.0"
     inkscape:pagecheckerboard="0"
     inkscape:deskcolor="#d1d1d1"
     showgrid="false"
     inkscape:zoom="46.4375"
     inkscape:cx="7.6339166"
     inkscape:cy="7.9892328"
     inkscape:window-width="1920"
     inkscape:window-height="1021"
     inkscape:window-x="0"
     inkscape:window-y="0"
     inkscape:window-maximized="1"
     inkscape:current-layer="svg4" />
  <path
     d="M 7,1 V 3 H 4 C 1.800781,3 0,4.800781 0,7 v 2 c 0,1.019531 0.386719,1.964844 1.019531,2.671875 0.367188,0.410156 1,0.445313 1.410157,0.07813 0.414062,-0.367188 0.449218,-1 0.078124,-1.414062 C 2.191406,9.984375 2,9.523438 2,9 V 7 C 2,5.875 2.875,5 4,5 H 7 V 7 H 8 V 6.992188 C 8.265625,6.996094 8.519531,6.890625 8.707031,6.707031 l 2,-2 C 10.914062,4.5 11.019531,4.210938 10.996094,3.917969 c 0,-0.015625 -0.0039,-0.03125 -0.0078,-0.046875 -0.0078,-0.070313 -0.02344,-0.136719 -0.04687,-0.203125 -0.01172,-0.035157 -0.02344,-0.070313 -0.04297,-0.101563 0,-0.00781 -0.0039,-0.011718 -0.0078,-0.019531 C 10.878906,3.523438 10.863281,3.5 10.851562,3.476562 10.84375,3.464844 10.832031,3.449219 10.824219,3.4375 10.808594,3.417969 10.796875,3.394531 10.78125,3.375 L 10.757812,3.351562 C 10.742188,3.332031 10.726562,3.3125 10.707031,3.292969 l -2,-2 C 8.519531,1.109375 8.265625,1.003906 8,1.007812 V 1 Z"
     fill="#2e3436"
     id="path2"
     sodipodi:nodetypes="ccssscccssscccccsccccsccccscccc" />
</svg>
